icons/midnadark/devices/64/media-flash-sd-mmc.svg

<?xml version="1.0" encoding="UTF-8" standalone="no"?>
<!-- Created with Inkscape (http://www.inkscape.org/) -->

<svg
   xmlns:osb="http://www.openswatchbook.org/uri/2009/osb"
   xmlns:dc="http://purl.org/dc/elements/1.1/"
   xmlns:cc="http://creativecommons.org/ns#"
   xmlns:rdf="http://www.w3.org/1999/02/22-rdf-syntax-ns#"
   xmlns:svg="http://www.w3.org/2000/svg"
   xmlns="http://www.w3.org/2000/svg"
   xmlns:xlink="http://www.w3.org/1999/xlink"
   xmlns:sodipodi="http://sodipodi.sourceforge.net/DTD/sodipodi-0.dtd"
   xmlns:inkscape="http://www.inkscape.org/namespaces/inkscape"
   width="48"
   height="48"
   id="svg5453"
   version="1.1"
   inkscape:version="0.91 r13725"
   sodipodi:docname="media-flash-sd-mmc.svg">
  <defs
     id="defs5455">
    <linearGradient
       id="linearGradient4289">
      <stop
         id="stop4291"
         offset="0"
         style="stop-color:#151515;stop-opacity:1" />
      <stop
         id="stop4293"
         offset="1"
         style="stop-color:#3f3f3f;stop-opacity:1" />
    </linearGradient>
    <linearGradient
       gradientTransform="matrix(1.0271756,0,0,1,-394.97889,-499.79799)"
       gradientUnits="userSpaceOnUse"
       y2="506.1409"
       x2="415.93399"
       y1="556.86884"
       x1="416.05402"
       id="linearGradient4158"
       xlink:href="#linearGradient4289"
       inkscape:collect="always" />
    <linearGradient
       inkscape:collect="always"
       xlink:href="#linearGradient5322"
       id="linearGradient4183"
       x1="408.57144"
       y1="518.77545"
       x2="408.57144"
       y2="505.64764"
       gradientUnits="userSpaceOnUse"
       gradientTransform="matrix(0.9930282,0,0,0.75337939,3.0659989,124.76599)" />
    <linearGradient
       osb:paint="gradient"
       id="linearGradient4207">
      <stop
         id="stop3371"
         offset="0"
         style="stop-color:#3498db;stop-opacity:1;" />
      <stop
         id="stop3373"
         offset="1"
         style="stop-color:#3498db;stop-opacity:0;" />
    </linearGradient>
    <linearGradient
       id="linearGradient5322">
      <stop
         offset="0"
         style="stop-color:#0088ff;stop-opacity:1"
         id="stop5324" />
      <stop
         offset="1"
         style="stop-color:#02c3ff;stop-opacity:1"
         id="stop5326" />
    </linearGradient>
    <linearGradient
       inkscape:collect="always"
       id="linearGradient4298-7">
      <stop
         style="stop-color:#e4bd27;stop-opacity:1"
         offset="0"
         id="stop4300-8" />
      <stop
         style="stop-color:#fff360;stop-opacity:1"
         offset="1"
         id="stop4302-8" />
    </linearGradient>
    <linearGradient
       inkscape:collect="always"
       xlink:href="#linearGradient4298-7"
       id="linearGradient4348"
       x1="388.80453"
       y1="518.99725"
       x2="388.84509"
       y2="512.09192"
       gradientUnits="userSpaceOnUse"
       gradientTransform="translate(0,-1.4)" />
    <linearGradient
       id="linearGradient4303-1"
       inkscape:collect="always">
      <stop
         id="stop4305-2"
         offset="0"
         style="stop-color:#bfc1c1;stop-opacity:1" />
      <stop
         id="stop4307-2"
         offset="1"
         style="stop-color:#f1f2f3;stop-opacity:1" />
    </linearGradient>
    <linearGradient
       inkscape:collect="always"
       xlink:href="#linearGradient4303-1"
       id="linearGradient4844"
       x1="407.52512"
       y1="546.59906"
       x2="407.43796"
       y2="506.14133"
       gradientUnits="userSpaceOnUse"
       gradientTransform="matrix(0.98795181,0,0,1,5.1835909,0)" />
  </defs>
  <sodipodi:namedview
     id="base"
     pagecolor="#6e6e6e"
     bordercolor="#666666"
     borderopacity="1.0"
     inkscape:pageopacity="0"
     inkscape:pageshadow="2"
     inkscape:zoom="5.734375"
     inkscape:cx="22.767418"
     inkscape:cy="32.664799"
     inkscape:document-units="px"
     inkscape:current-layer="g4744"
     showgrid="false"
     fit-margin-top="0"
     fit-margin-left="0"
     fit-margin-right="0"
     fit-margin-bottom="0"
     inkscape:window-width="1366"
     inkscape:window-height="633"
     inkscape:window-x="0"
     inkscape:window-y="33"
     inkscape:window-maximized="1"
     inkscape:showpageshadow="false"
     borderlayer="true"
     showguides="false"
     showborder="false">
    <inkscape:grid
       type="xygrid"
       id="grid4063"
       originx="7.9999866px"
       originy="7.9999772px"
       empspacing="2" />
    <sodipodi:guide
       position="0,0"
       orientation="0,64"
       id="guide4196" />
    <sodipodi:guide
       position="64,0"
       orientation="-64,0"
       id="guide4198" />
    <sodipodi:guide
       position="64,64"
       orientation="0,-64"
       id="guide4200" />
    <sodipodi:guide
       position="6,58"
       orientation="52,0"
       id="guide4202" />
    <sodipodi:guide
       position="6,6"
       orientation="0,52"
       id="guide4204" />
    <sodipodi:guide
       position="58,6"
       orientation="-52,0"
       id="guide4206" />
    <sodipodi:guide
       position="58,58"
       orientation="0,-52"
       id="guide4208" />
  </sodipodi:namedview>
  <metadata
     id="metadata5458">
    <rdf:RDF>
      <cc:Work
         rdf:about="">
        <dc:format>image/svg+xml</dc:format>
        <dc:type
           rdf:resource="http://purl.org/dc/dcmitype/StillImage" />
        <dc:title></dc:title>
      </cc:Work>
    </rdf:RDF>
  </metadata>
  <g
     inkscape:label="Capa 1"
     inkscape:groupmode="layer"
     id="layer1"
     transform="translate(-376.57144,-507.79797)">
    <g
       id="g4744">
      <g
         id="g4174"
         transform="matrix(0.92306398,0,0,0.92306398,23.43374,48.298747)">
        <path
           style="opacity:1;fill:url(#linearGradient4348);fill-opacity:1;stroke:none"
           d="m 388.57144,509.39797 c -0.554,0 -1,0.446 -1,1 l 0,7 c 0,0.554 0.446,1 1,1 l 2,0 0,-9 -2,0 z"
           id="rect4202"
           inkscape:connector-curvature="0" />
        <path
           style="opacity:1;fill:url(#linearGradient4158);fill-opacity:1;stroke:none"
           d="M 11,8.1089918 11,20 l 2,0 0,13 -1.512262,0 c 0,0 -0.461833,-0.0091 -0.487738,0.613079 l 0,21.786036 C 11.079535,57.895207 13.192,58 13.192,58 l 37.467401,0 C 50.659401,58 53,58.095423 53,55.803815 L 53,28.186101 C 52.998992,27.983365 52.799875,28 52.799875,28 L 52,28 l 0,-5 0.697548,0 c 0,0 0.309156,0.0033 0.302452,-0.307902 l 0,-9.395095 c 0.0084,-0.318819 -0.188011,-0.485014 -0.188011,-0.485014 L 46.144414,6.1444142 C 46.033282,5.9891033 45.754768,6 45.754768,6 L 12.992,6 C 12.992,6 11,6.0669052 11,8.1089918 Z"
           transform="translate(376.57144,491.79797)"
           id="rect4139"
           inkscape:connector-curvature="0"
           sodipodi:nodetypes="cccccccccccccccccccccc" />
        <rect
           ry="7.7999926"
           y="506.89804"
           x="400.77151"
           height="15.599988"
           width="15.599988"
           id="rect4963"
           style="opacity:1;fill:#abb9be;fill-opacity:1;stroke:none;stroke-width:0.1;stroke-miterlimit:4;stroke-dasharray:none;stroke-opacity:1" />
        <rect
           ry="1.3"
           y="505.83612"
           x="390.91476"
           height="37.929153"
           width="35.749321"
           id="rect4836"
           style="opacity:1;fill:url(#linearGradient4844);fill-opacity:1;fill-rule:evenodd;stroke:none;stroke-width:2;stroke-linecap:round;stroke-linejoin:round;stroke-miterlimit:4;stroke-dasharray:none;stroke-dashoffset:0;stroke-opacity:1" />
        <rect
           ry="1.2947569"
           style="opacity:1;fill:url(#linearGradient4183);fill-opacity:1;stroke:none"
           id="rect4175"
           width="35.749001"
           height="8.2871647"
           x="390.91443"
           y="505.82379" />
        <path
           style="fill:#edefef;fill-opacity:1;fill-rule:evenodd;stroke:none;stroke-width:1px;stroke-linecap:butt;stroke-linejoin:miter;stroke-opacity:1"
           d="m 424.18256,512.07497 -1.45308,-4.00235 -1.45304,4.00235 z"
           id="path4616"
           inkscape:connector-curvature="0"
           sodipodi:nodetypes="cccc" />
        <g
           transform="matrix(0.73558062,0,0,0.73558062,390.4965,-230.66482)"
           id="layer1-8"
           inkscape:label="Capa 1"
           style="fill:#343434;fill-opacity:1">
          <g
             id="g7976-8"
             transform="matrix(0.60167895,0,0,0.59982444,282.37579,1122.3229)"
             style="fill:#343434;fill-opacity:1">
            <ellipse
               id="path3023-6"
               style="color:#000000;display:inline;overflow:visible;visibility:visible;fill:#343434;fill-opacity:1;fill-rule:nonzero;stroke:none;stroke-width:1.39999998;stroke-linecap:butt;stroke-linejoin:miter;stroke-miterlimit:4;stroke-dasharray:none;stroke-opacity:1;marker:none;enable-background:accumulate"
               cx="-462.60782"
               cy="-130.50694"
               rx="2.4999926"
               ry="2.5" />
            <ellipse
               id="path3023-9-1"
               style="color:#000000;display:inline;overflow:visible;visibility:visible;fill:#343434;fill-opacity:1;fill-rule:nonzero;stroke:none;stroke-width:1.39999998;marker:none;enable-background:accumulate"
               cx="-458.10782"
               cy="-123.00694"
               rx="2.9999924"
               ry="3" />
            <ellipse
               id="path3023-7-6"
               style="color:#000000;display:inline;overflow:visible;visibility:visible;fill:#343434;fill-opacity:1;fill-rule:nonzero;stroke:none;stroke-width:1.39999998;marker:none;enable-background:accumulate"
               cx="-460.60788"
               cy="-138.50693"
               rx="1.5000025"
               ry="1.499995" />
            <path
               sodipodi:nodetypes="ccccccccc"
               inkscape:connector-curvature="0"
               id="path3818-1"
               d="m -452.10784,-140.00692 -2.84375,2.84374 4.375,4.375 -4.53125,5.15625 3,2.625 7.00002,-8 0,0 -7.00002,-6.99999 z"
               style="color:#000000;font-style:normal;font-variant:normal;font-weight:normal;font-stretch:normal;font-size:medium;line-height:normal;font-family:Sans;-inkscape-font-specification:Sans;text-indent:0;text-align:start;text-decoration:none;text-decoration-line:none;letter-spacing:normal;word-spacing:normal;text-transform:none;direction:ltr;block-progression:tb;writing-mode:lr-tb;baseline-shift:baseline;text-anchor:start;display:inline;overflow:visible;visibility:visible;fill:#343434;fill-opacity:1;stroke:none;stroke-width:8;marker:none;enable-background:accumulate" />
          </g>
        </g>
        <rect
           y="512.849"
           x="390.91443"
           height="1.348"
           width="35.749001"
           id="rect4859"
           style="opacity:1;fill:#0198ff;fill-opacity:1;fill-rule:evenodd;stroke:none;stroke-width:2;stroke-linecap:round;stroke-linejoin:round;stroke-miterlimit:4;stroke-dasharray:none;stroke-dashoffset:0;stroke-opacity:1" />
      </g>
    </g>
  </g>
</svg>

<svg xmlns="http://www.w3.org/2000/svg" viewBox="0 0 48 48"><defs><linearGradient id="3" x1="407.53" y1="546.6" x2="407.44" y2="506.14" gradientUnits="userSpaceOnUse" gradientTransform="matrix(.98795 0 0 1 5.184 0)"><stop stop-color="#bfc1c1"/><stop offset="1" stop-color="#f1f2f3"/></linearGradient><linearGradient id="2" x1="388.8" y1="517.6" x2="388.85" y2="510.69" gradientUnits="userSpaceOnUse"><stop stop-color="#e4bd27"/><stop offset="1" stop-color="#fff360"/></linearGradient><linearGradient gradientTransform="matrix(1.02718 0 0 1-394.98-499.8)" gradientUnits="userSpaceOnUse" y2="506.14" x2="415.93" y1="556.87" x1="416.05" id="0"><stop stop-color="#151515"/><stop offset="1" stop-color="#3f3f3f"/></linearGradient><linearGradient id="1" y1="518.78" x2="0" y2="505.65" gradientUnits="userSpaceOnUse" gradientTransform="matrix(.99303 0 0 .75338 3.066 124.77)"><stop stop-color="#08f"/><stop offset="1" stop-color="#02c3ff"/></linearGradient></defs><g transform="matrix(.92306 0 0 .92306-353.14-459.5)"><path d="m388.57 509.4c-.554 0-1 .446-1 1v7c0 .554.446 1 1 1h2v-9h-2" fill="url(#2)"/><path d="m11 8.109v11.891h2v13h-1.512c0 0-.462-.009-.488.613v21.786c.08 2.496 2.192 2.601 2.192 2.601h37.467c0 0 2.341.095 2.341-2.196v-27.618c-.0001-.203-.2-.186-.2-.186h-.8v-5h.698c0 0 .309.003.302-.308v-9.395c.008-.319-.188-.485-.188-.485l-6.668-6.668c-.111-.155-.39-.144-.39-.144h-32.763c0 0-1.992.067-1.992 2.109" transform="translate(376.57 491.8)" fill="url(#0)"/><rect y="506.9" x="400.77" height="15.6" width="15.6" fill="#abb9be" rx="7.8"/><rect y="505.84" x="390.91" height="37.929" width="35.749" fill="url(#3)" fill-rule="evenodd" rx="1.3"/><rect width="35.749" height="8.287" x="390.91" y="505.82" fill="url(#1)" rx="1.295"/><path d="m424.18 512.07l-1.453-4-1.453 4z" fill="#edefef" fill-rule="evenodd"/><g transform="matrix(.44258 0 0 .44122 598.21 594.89)" fill="#343434" color="#000"><ellipse cx="-462.61" cy="-130.51" rx="2.5" ry="2.5"/><ellipse cx="-458.11" cy="-123.01" rx="3" ry="3"/><ellipse cx="-460.61" cy="-138.51" rx="1.5" ry="1.5"/><path d="m-452.11-140.01l-2.844 2.844 4.375 4.375-4.531 5.156 3 2.625 7-8-7-7"/></g><path fill="#0198ff" fill-rule="evenodd" d="m390.91 512.85h35.749v1.348h-35.749z"/></g></svg>
